X:1
T:Title
%%score { ( 1 4 ) | ( 2 3 ) }
L:1/8
M:4/4
K:Ab
V:1 treble nm="Grand Piano"
V:4 treble 
V:2 bass 
V:3 bass 
V:1
 z4 z2[Q:1/4=106] [CE]2 | [Ec]3 [Ec] [Ec]BAB | [Ec]6[K:bass] z2 | B>B B2 A>A A2 |[M:3/4] c4 B2 | %5
[M:1/4] [CE]2 |[M:4/4] [Ec]3 [Ec] [Ec]BAB | [Ec]6[K:bass] z2 | B>B B2 A>A c2 | B4 [CA]2 z2 | %10
 F>F F2 [FA]2 [DF]2 | [CE]2 [_C=D]2 [=CE]4 | [DF][FA][EG][DF] [CE]2 [CA]2 | B2 _c2 =c4 | %14
 c3 c c[CA][EB][_Gc] | [Fe]2 [Fd]2 [Fd]4 | c>c c2 B>B B2 |[M:3/4] [CA]4 [CA]2 |] %18
V:2
 z4 z2 [A,,A,]2 | [A,,A,]4 z DCD | [A,,A,]A,,A,,A,, A,,2 z2 | %3
 [E,G,E]>[E,G,E] [E,G,E]2 [F,A,C]>[F,A,C] [F,A,C]2 |[M:3/4] [E,G,E]4 [E,G,D]2 |[M:1/4] [A,,A,]2 | %6
[M:4/4] [A,,A,]4 z DCD | [A,,A,]A,,A,,A,, A,,2 z2 | %8
 [E,G,E]>[E,G,E] [E,G,E]2 [F,A,C]>[F,A,C] [F,A,C]2 | [E,G,D]4 [A,,A,]2 z2 | %10
 [D,A,D]>[D,A,D] [D,A,D]2 [D,D]2 [D,A,]2 | [A,,A,]2 [A,,A,]2 [A,,A,]4 | %12
 [D,A,][D,A,][D,A,][D,A,] [A,,A,]2 [A,,A,]2 | [E,G,E]2 [E,G,E]2 [A,E]4 | %14
 [A,E]3 [A,E] [A,E][A,,A,][B,,G,][C,A,] | [D,A,]2 [D,A,]2 [D,A,]4 | %16
 [E,A,E]>[E,A,E] [E,A,E]2 [E,G,D]>[E,G,D] [E,G,D]2 |[M:3/4] [A,,A,]4 [A,,A,]2 |] %18
V:3
 x8 | z4 [A,,A,]4 | x8 | x8 |[M:3/4] x6 |[M:1/4] x2 |[M:4/4] z4 [A,,A,]4 | x8 | x8 | x8 | x8 | x8 | %12
 x8 | x8 | x8 | x8 | x8 |[M:3/4] x6 |] %18
V:4
 x8 | x8 | z[K:bass] A,A,A, A,2 z2 | x8 |[M:3/4] x6 |[M:1/4] x2 |[M:4/4] x8 | %7
 z[K:bass] A,A,A, A,2 z2 | x8 | x8 | x8 | x8 | x8 | x8 | x8 | x8 | x8 |[M:3/4] x6 |] %18

